www/assets/icons/face_4.svg

<svg width="24" height="24" viewBox="0 0 24 24" xmlns="http://www.w3.org/2000/svg" fill='currentColor'><path d="M13 3C12.04 3 11.12 3.14 10.25 3.39C9.37 1.96 7.8 1 6 1C3.24 1 1 3.24 1 6C1 7.8 1.96 9.37 3.39 10.25C3.14 11.12 3 12.04 3 13C3 18.52 7.48 23 13 23C18.52 23 23 18.52 23 13C23 7.48 18.52 3 13 3ZM13 21C8.59 21 5 17.41 5 13C5 12.95 5.01 12.9 5.01 12.85C7.61 11.87 9.69 9.86 10.75 7.3C12.58 9.56 15.37 11 18.5 11C19.25 11 19.97 10.91 20.67 10.76C20.88 11.47 21 12.22 21 13C21 17.41 17.41 21 13 21Z"/><path d="M10 15.25C10.6904 15.25 11.25 14.6904 11.25 14C11.25 13.3096 10.6904 12.75 10 12.75C9.30964 12.75 8.75 13.3096 8.75 14C8.75 14.6904 9.30964 15.25 10 15.25Z"/><path d="M16 15.25C16.6904 15.25 17.25 14.6904 17.25 14C17.25 13.3096 16.6904 12.75 16 12.75C15.3096 12.75 14.75 13.3096 14.75 14C14.75 14.6904 15.3096 15.25 16 15.25Z"/></svg>

<svg xmlns="http://www.w3.org/2000/svg" width="24" height="24" viewBox="0 0 24 24" fill='currentColor'><path d="M13 3c-.96 0-1.88.14-2.75.39A4.99 4.99 0 0 0 6 1C3.24 1 1 3.24 1 6c0 1.8.96 3.37 2.39 4.25C3.14 11.12 3 12.04 3 13c0 5.52 4.48 10 10 10s10-4.48 10-10S18.52 3 13 3m0 18c-4.41 0-8-3.59-8-8 0-.05.01-.1.01-.15 2.6-.98 4.68-2.99 5.74-5.55a9.94 9.94 0 0 0 9.92 3.46c.21.71.33 1.46.33 2.24 0 4.41-3.59 8-8 8"/><path d="M10 15.25a1.25 1.25 0 1 0 0-2.5 1.25 1.25 0 0 0 0 2.5m6 0a1.25 1.25 0 1 0 0-2.5 1.25 1.25 0 0 0 0 2.5"/></svg>
